X:233
T:10th of June 96. JBut.229, The
B:John Buttrey MS, poss. Lincolnshire, early 19thC
S:https://buttreymilitarysocialtunes1800.wordpress.com/
Z:vmp.Mike Hicken 2019 www.village-music-project.org.uk
M:2/4
L:1/16
Q:1/4=100
C: A Quick Step by S Q
K:D
FE|D2FA (dc).B.A|(Bc).d.B (ec).B.A|d2fa (gf).e.d|c2e2 e2(FE)|
D2FA (dc).B.A|(Bc).d.B (ec).B.A|Adfa gedc|d2d2d2:|
|: (fd)|(ec).A.G (FA).d.f| (ed).c.d (ec).A.G|F2gf (ed).c.d|(ed).c.B (AG).F.E|
D2(FA) (dc).B.A|(Bc).d.B (ec).B.A|Adfa gedc|d2d2d2:|





